icon/cg/duplicate.svg

<svg width="24" height="24" fill="none" xmlns="http://www.w3.org/2000/svg"><path d="M19 5H7V3h14v14h-2V5ZM9 13v-2h2v2h2v2h-2v2H9v-2H7v-2h2Z" fill="currentColor"/><path fill-rule="evenodd" clip-rule="evenodd" d="M3 7h14v14H3V7Zm2 2h10v10H5V9Z" fill="currentColor"/></svg>

<svg viewBox="0 0 24 24" fill="none" xmlns="http://www.w3.org/2000/svg" height="1em" width="1em">
  <path d="M19 5H7V3H21V17H19V5Z" fill="currentColor"/>
  <path d="M9 13V11H11V13H13V15H11V17H9V15H7V13H9Z" fill="currentColor"/>
  <path fill-rule="evenodd" clip-rule="evenodd" d="M3 7H17V21H3V7ZM5 9H15V19H5V9Z" fill="currentColor"/>
</svg>
